X: 37286
T: Skippin' Cat
R: reel
M: 4/4
K: Gmajor
B,C|:DCB,C DCB,C|DGBG c2 Bc|dedc BAG=F|E2C2 C2B,C|
DCB,C DCB,C|DGBG cdef|gage dBAc|1 B2G2 G2B,C:|2 B2G2 G4||
|:A3c B2d2|ABcA B2G2|A3c Bdef|gedc B2G2|
A3c B2d2|ABcA Bdef|gage dBAc|1 B2G2 G4:|2 B2G2 G2B,C||

